static/logos/airbnb-wordmark-color.svg

<svg width="100" height="32" viewBox="0 0 100 32" fill="none" xmlns="http://www.w3.org/2000/svg">
<g clip-path="url(#clip0_1_3603)">
<path d="M52.5571 7.81931C52.5571 8.94081 51.6537 9.84424 50.5322 9.84424C49.4107 9.84424 48.5073 8.94081 48.5073 7.81931C48.5073 6.69782 49.3795 5.79439 50.5322 5.79439C51.6848 5.82555 52.5571 6.72897 52.5571 7.81931ZM44.2082 11.9003C44.2082 12.0872 44.2082 12.3988 44.2082 12.3988C44.2082 12.3988 43.2425 11.1526 41.1864 11.1526C37.7907 11.1526 35.1428 13.7383 35.1428 17.3209C35.1428 20.8723 37.7596 23.4891 41.1864 23.4891C43.2736 23.4891 44.2082 22.2118 44.2082 22.2118V22.7414C44.2082 22.9907 44.3951 23.1776 44.6443 23.1776H47.1677V11.4642C47.1677 11.4642 44.8624 11.4642 44.6443 11.4642C44.3951 11.4642 44.2082 11.6822 44.2082 11.9003ZM44.2082 19.4081C43.7409 20.0935 42.8063 20.6854 41.6848 20.6854C39.6911 20.6854 38.1646 19.4393 38.1646 17.3209C38.1646 15.2025 39.6911 13.9564 41.6848 13.9564C42.7752 13.9564 43.7721 14.5794 44.2082 15.2336V19.4081ZM49.0369 11.4642H52.0275V23.1776H49.0369V11.4642ZM93.7097 11.1526C91.6537 11.1526 90.6879 12.3988 90.6879 12.3988V5.82555H87.6973V23.1776C87.6973 23.1776 90.0026 23.1776 90.2207 23.1776C90.4699 23.1776 90.6568 22.9595 90.6568 22.7414V22.2118C90.6568 22.2118 91.6225 23.4891 93.6786 23.4891C97.0742 23.4891 99.7222 20.8723 99.7222 17.3209C99.7222 13.7695 97.0742 11.1526 93.7097 11.1526ZM93.2113 20.6542C92.0587 20.6542 91.1552 20.0623 90.6879 19.3769V15.2025C91.1552 14.5794 92.1521 13.9252 93.2113 13.9252C95.2051 13.9252 96.7316 15.1713 96.7316 17.2897C96.7316 19.4081 95.2051 20.6542 93.2113 20.6542ZM86.1397 16.2305V23.2087H83.149V16.5732C83.149 14.6417 82.5259 13.8629 80.8437 13.8629C79.9403 13.8629 79.0057 14.3302 78.4138 15.0156V23.1776H75.4231V11.4642H77.7907C78.04 11.4642 78.2269 11.6822 78.2269 11.9003V12.3988C79.0992 11.4953 80.2518 11.1526 81.4045 11.1526C82.7129 11.1526 83.8032 11.5265 84.6755 12.2741C85.7347 13.1464 86.1397 14.2679 86.1397 16.2305ZM68.1646 11.1526C66.1085 11.1526 65.1428 12.3988 65.1428 12.3988V5.82555H62.1521V23.1776C62.1521 23.1776 64.4574 23.1776 64.6755 23.1776C64.9247 23.1776 65.1116 22.9595 65.1116 22.7414V22.2118C65.1116 22.2118 66.0774 23.4891 68.1334 23.4891C71.5291 23.4891 74.177 20.8723 74.177 17.3209C74.2082 13.7695 71.5602 11.1526 68.1646 11.1526ZM67.6661 20.6542C66.5135 20.6542 65.6101 20.0623 65.1428 19.3769V15.2025C65.6101 14.5794 66.6069 13.9252 67.6661 13.9252C69.6599 13.9252 71.1864 15.1713 71.1864 17.2897C71.1864 19.4081 69.6599 20.6542 67.6661 20.6542ZM59.5664 11.1526C60.4699 11.1526 60.9372 11.3084 60.9372 11.3084V14.081C60.9372 14.081 58.445 13.2399 56.8873 15.0156V23.2087H53.8967V11.4642C53.8967 11.4642 56.202 11.4642 56.42 11.4642C56.6693 11.4642 56.8562 11.6822 56.8562 11.9003V12.3988C57.4169 11.7445 58.6319 11.1526 59.5664 11.1526ZM28.5073 22.1184C28.3515 21.7445 28.1957 21.3396 28.04 20.9969C27.7907 20.4361 27.5415 19.9065 27.3235 19.4081L27.2923 19.3769C25.1428 14.704 22.8375 9.96885 20.4076 5.29595L20.3141 5.10903C20.0649 4.64174 19.8157 4.1433 19.5664 3.64486C19.2549 3.08411 18.9434 2.49221 18.445 1.93146C17.4481 0.685358 16.015 0 14.4886 0C12.9309 0 11.5291 0.685358 10.501 1.86916C10.0337 2.42991 9.69106 3.02181 9.37953 3.58255C9.13031 4.081 8.88109 4.57944 8.63187 5.04673L8.53841 5.23364C6.13966 9.90654 3.80321 14.6417 1.65369 19.3146L1.62253 19.3769C1.40446 19.8754 1.15524 20.405 0.906022 20.9657C0.750259 21.3084 0.594495 21.6822 0.438732 22.0872C0.0337487 23.2399 -0.0908619 24.3302 0.0649014 25.4517C0.40758 27.7882 1.96521 29.7508 4.11474 30.6231C4.9247 30.9657 5.76583 31.1215 6.6381 31.1215C6.88732 31.1215 7.19885 31.0903 7.44807 31.0592C8.47611 30.9346 9.5353 30.5919 10.5633 30C11.8406 29.2835 13.0555 28.2555 14.4263 26.7601C15.797 28.2555 17.0431 29.2835 18.2892 30C19.3172 30.5919 20.3764 30.9346 21.4045 31.0592C21.6537 31.0903 21.9652 31.1215 22.2144 31.1215C23.0867 31.1215 23.959 30.9657 24.7378 30.6231C26.9185 29.7508 28.445 27.757 28.7876 25.4517C29.0369 24.3614 28.9122 23.271 28.5073 22.1184ZM14.4574 23.7383C12.7752 21.6199 11.6848 19.6262 11.311 17.9439C11.1552 17.2274 11.1241 16.6044 11.2175 16.0436C11.2798 15.5452 11.4668 15.109 11.716 14.7352C12.3079 13.8941 13.3048 13.3645 14.4574 13.3645C15.6101 13.3645 16.6381 13.8629 17.1988 14.7352C17.4481 15.109 17.635 15.5452 17.6973 16.0436C17.7907 16.6044 17.7596 17.2586 17.6038 17.9439C17.23 19.595 16.1397 21.5888 14.4574 23.7383ZM26.8873 25.2025C26.6693 26.8224 25.5789 28.2243 24.0524 28.8474C23.3048 29.1589 22.4948 29.2523 21.6848 29.1589C20.906 29.0654 20.1272 28.8162 19.3172 28.3489C18.1957 27.7259 17.0742 26.7601 15.7658 25.3271C17.8219 22.8037 19.068 20.4984 19.5353 18.4424C19.7534 17.4766 19.7845 16.6044 19.6911 15.7944C19.5664 15.0156 19.2861 14.2991 18.8499 13.676C17.8842 12.2741 16.2643 11.4642 14.4574 11.4642C12.6506 11.4642 11.0306 12.3053 10.0649 13.676C9.62875 14.2991 9.34838 15.0156 9.22377 15.7944C9.09916 16.6044 9.13031 17.5078 9.37953 18.4424C9.84682 20.4984 11.1241 22.8349 13.149 25.3583C11.8717 26.7913 10.7191 27.757 9.5976 28.3801C8.78763 28.8474 8.00882 29.0966 7.23 29.19C6.38888 29.2835 5.57891 29.1589 4.8624 28.8785C3.33592 28.2555 2.24559 26.8536 2.02752 25.2336C1.93406 24.4548 1.99636 23.676 2.30789 22.8037C2.40135 22.4922 2.55711 22.1807 2.71288 21.8069C2.93094 21.3084 3.18016 20.7788 3.42938 20.2492L3.46053 20.1869C5.61006 15.5452 7.91536 10.81 10.3141 6.19938L10.4076 6.01246C10.6568 5.54517 10.906 5.04673 11.1552 4.57944C11.4045 4.081 11.6848 3.61371 12.0275 3.20872C12.6817 2.46106 13.554 2.05607 14.5197 2.05607C15.4855 2.05607 16.3577 2.46106 17.0119 3.20872C17.3546 3.61371 17.635 4.081 17.8842 4.57944C18.1334 5.04673 18.3826 5.54517 18.6319 6.01246L18.7253 6.19938C21.0929 10.8411 23.3982 15.5763 25.5478 20.2181V20.2492C25.797 20.7477 26.015 21.3084 26.2643 21.8069C26.42 22.1807 26.5758 22.4922 26.6693 22.8037C26.9185 23.6137 27.0119 24.3925 26.8873 25.2025Z" fill="#FF5A5F"/>
</g>
<defs>
<clipPath id="clip0_1_3603">
<rect width="100" height="31.1526" fill="white"/>
</clipPath>
</defs>
</svg>

<svg xmlns="http://www.w3.org/2000/svg" width="200" height="64" fill="none" viewBox="0 0 100 32"><g clip-path="url(#a)"><path fill="#FF5A5F" d="M52.557 7.82a2.02 2.02 0 0 1-2.025 2.024 2.02 2.02 0 0 1-2.025-2.025c0-1.121.873-2.025 2.025-2.025 1.153.032 2.025.935 2.025 2.025Zm-8.349 4.08v.499s-.965-1.246-3.022-1.246c-3.395 0-6.043 2.585-6.043 6.168 0 3.551 2.617 6.168 6.043 6.168 2.088 0 3.022-1.277 3.022-1.277v.53c0 .249.187.436.436.436h2.524V11.464h-2.524a.445.445 0 0 0-.436.436Zm0 7.508c-.467.685-1.402 1.277-2.523 1.277-1.994 0-3.52-1.246-3.52-3.364 0-2.119 1.526-3.365 3.52-3.365 1.09 0 2.087.623 2.523 1.278v4.174Zm4.829-7.944h2.99v11.714h-2.99V11.464Zm44.673-.311c-2.056 0-3.022 1.246-3.022 1.246V5.826h-2.99v17.352h2.523c.249 0 .436-.219.436-.437v-.53s.966 1.278 3.022 1.278c3.395 0 6.043-2.617 6.043-6.168 0-3.552-2.648-6.168-6.012-6.168Zm-.499 9.501c-1.152 0-2.056-.592-2.523-1.277v-4.174c.467-.624 1.464-1.278 2.523-1.278 1.994 0 3.52 1.246 3.52 3.365 0 2.118-1.526 3.364-3.52 3.364ZM86.14 16.23v6.979h-2.991v-6.636c0-1.931-.623-2.71-2.305-2.71-.904 0-1.838.467-2.43 1.153v8.162h-2.99V11.464h2.367c.249 0 .436.218.436.436v.499c.872-.904 2.025-1.246 3.177-1.246 1.309 0 2.4.373 3.272 1.121 1.059.872 1.464 1.994 1.464 3.957Zm-17.975-5.077c-2.056 0-3.022 1.246-3.022 1.246V5.826h-2.99v17.352h2.523c.249 0 .436-.219.436-.437v-.53s.965 1.278 3.021 1.278c3.396 0 6.044-2.617 6.044-6.168.031-3.552-2.617-6.168-6.012-6.168Zm-.499 9.501c-1.153 0-2.056-.592-2.523-1.277v-4.174c.467-.624 1.464-1.278 2.523-1.278 1.994 0 3.52 1.246 3.52 3.365 0 2.118-1.526 3.364-3.52 3.364Zm-8.1-9.501c.904 0 1.371.155 1.371.155v2.773s-2.492-.841-4.05.935v8.193h-2.99V11.464h2.523c.25 0 .436.218.436.436v.499c.56-.654 1.776-1.246 2.71-1.246ZM28.507 22.118c-.155-.373-.311-.778-.467-1.121-.25-.56-.498-1.09-.716-1.589l-.032-.031a325.125 325.125 0 0 0-6.884-14.081l-.094-.187c-.25-.467-.498-.966-.748-1.464-.311-.56-.623-1.153-1.121-1.714C17.448.685 16.015 0 14.489 0c-1.558 0-2.96.685-3.988 1.87-.467.56-.81 1.152-1.121 1.713-.25.498-.499.996-.748 1.464l-.094.187c-2.398 4.673-4.735 9.408-6.884 14.08l-.031.063c-.219.498-.468 1.028-.717 1.589-.156.342-.312.716-.467 1.121-.405 1.153-.53 2.243-.374 3.365a6.62 6.62 0 0 0 4.05 5.171c.81.343 1.65.498 2.523.498A8.23 8.23 0 0 0 10.563 30c1.278-.716 2.492-1.744 3.863-3.239 1.371 1.495 2.617 2.523 3.863 3.24a8.23 8.23 0 0 0 3.925 1.122c.873 0 1.745-.156 2.524-.499 2.18-.872 3.707-2.866 4.05-5.171.249-1.09.124-2.181-.28-3.334Zm-14.05 1.62c-1.682-2.118-2.772-4.112-3.146-5.794-.156-.717-.187-1.34-.094-1.9.063-.499.25-.935.499-1.309.592-.84 1.589-1.37 2.741-1.37 1.153 0 2.181.498 2.742 1.37.25.374.436.81.498 1.309.094.56.063 1.215-.093 1.9-.374 1.651-1.464 3.645-3.147 5.794Zm12.43 1.465a4.63 4.63 0 0 1-2.835 3.644c-.747.312-1.557.405-2.367.312-.779-.094-1.558-.343-2.368-.81-1.121-.623-2.243-1.589-3.551-3.022 2.056-2.523 3.302-4.829 3.77-6.885a7.81 7.81 0 0 0 .155-2.648 5.056 5.056 0 0 0-.841-2.118c-.966-1.402-2.586-2.212-4.393-2.212-1.806 0-3.426.841-4.392 2.212a5.055 5.055 0 0 0-.841 2.118 6.468 6.468 0 0 0 .156 2.648c.467 2.056 1.744 4.393 3.769 6.916-1.277 1.433-2.43 2.399-3.551 3.022-.81.467-1.59.717-2.368.81a4.982 4.982 0 0 1-2.368-.312 4.63 4.63 0 0 1-2.834-3.644 5.157 5.157 0 0 1 .28-2.43c.093-.312.25-.623.405-.997.218-.499.467-1.028.716-1.558l.032-.062a340.611 340.611 0 0 1 6.853-13.988l.094-.187c.249-.467.498-.965.747-1.433.25-.498.53-.965.873-1.37.654-.748 1.526-1.153 2.492-1.153s1.838.405 2.492 1.153c.343.405.623.872.872 1.37.25.468.499.966.748 1.433l.093.187a413.3 413.3 0 0 1 6.823 14.02v.03c.249.499.467 1.06.716 1.558.156.374.312.685.405.997.25.81.343 1.588.218 2.399Z"/></g><defs><clipPath id="a"><path fill="#fff" d="M0 0h100v31.153H0z"/></clipPath></defs></svg>
